X: 1
T: Humors of Tullyknockbrine
M: C|
L: 1/8
R: Reel
S: Mark Evans, Columbia, MD
K: G
|: G2DG BDGB | ~d2^cd e=cAF | G2DG Bcde | dBBA AGFA |
|  G2DG BDGB | ~d2^cd e=cAF | G2DG Bcde | dBBA AGG2 :|
|: egfg egfe | ~d2fd Adfd | egfg efga | b2af ge~e2 |
|  egfg egfe | ~d2fd Adfd | G2DG Bcde | dBBA AGFA :|
